public/avatar/item1/5.svg

<svg xmlns:xlink="http://www.w3.org/1999/xlink" height="65.4" width="80.15" xmlns="http://www.w3.org/2000/svg"><use height="23.95" transform="translate(40.2 25.45)" width="7.85" xlink:href="#a"/><defs><g id="a" fill-rule="evenodd"><path d="m12.45 29.85 1.55-.2q.7 2.5 1.95 3.2.5 0 .5.75-.25 1.5-1.5 2l-2-.25q-2.75-1.75-3.25-5.7l1.55.2q.45 2.75 2.5 4.25l.7.3q0-.3.25-.55l-2.25-4" fill="#260000" transform="translate(-8.6 -11.65)"/><path d="m12.45 14.65.25-2.25q0-.25.5-.75l1 .25q2 2.75 1.25 5-2.5 8.2-1.45 12.75l-1.55.2-.25-3.2q0-4.3 2-10v-.75l-.2-1.25v.5q-3.55 11-2.75 14.7l-1.55-.2q-.5-4.8 2.75-15" fill="#650000" transform="translate(-8.6 -11.65)"/><path d="M10.45 22.9q4-1.25 4 2.5 0 1.75-3.7 1.75-.8 0-1.8-1.75-.45-.8 1.5-2.5" fill="#5d0000" transform="translate(-8.6 -11.65)"/><path d="M13.2 29.65h-2.75q-.5-5.25 2.75-14.75l.25-2.5q2 2.25 1.5 4.25-2.75 7.95-1.75 13" fill="red" transform="translate(-8.6 -11.65)"/><path d="M13.2 29.65q.8 2.95 2.5 3.7-.5 2.5-2.5 1.55-2.2-1.8-2.75-5.25h2.75" fill="#b80000" transform="translate(-8.6 -11.65)"/><path d="M13.45 18.65q-2 5.25-.75 11h-1q-.95-6 .75-11.5L14 14.4q.7.25.7 1l-1.25 3.25" fill="#ff7f00" transform="translate(-8.6 -11.65)"/><path d="m13.2 31.9 2 1.95-.75.55q-1 .5-2-2.25l-.75-2.5h1l.5 2.25" fill="#d25100" transform="translate(-8.6 -11.65)"/><path d="M14 23.9q-.55-.5-2.55-.5-2-.25-1.5 2.75l3.25.5q1.25 0 .8-2.75m-2.75-2q3.7.2 3.95 1 .25 4.7-1.75 4.7l-4.7-.45q-.25-1.75 0-3 .7-2.5 2.5-2.25" fill="#5d0000" transform="translate(-8.6 -11.65)"/><path d="M14 25.65q.2-.25.95-.25 0 .75-.75 1.95-1 .75-2.95.25 0-.7.95-.95h1.25q0-.25.55-1" fill="#260000" transform="translate(-8.6 -11.65)"/><path d="M9.2 23.15q.75-2 3.5-1.05l-.75 1.05q-.95-.5-1.5.25-.5.75-1.25-.25" fill="#920000" transform="translate(-8.6 -11.65)"/></g></defs></svg>

<?xml version="1.0" encoding="UTF-8" standalone="no"?>
<svg xmlns:xlink="http://www.w3.org/1999/xlink" height="65.4px" width="80.15px" xmlns="http://www.w3.org/2000/svg">
  <g transform="matrix(1.0, 0.0, 0.0, 1.0, 31.6, 13.8)">
    <use height="23.95" transform="matrix(1.0, 0.0, 0.0, 1.0, 8.6, 11.65)" width="7.85" xlink:href="#shape0"/>
  </g>
  <defs>
    <g id="shape0" transform="matrix(1.0, 0.0, 0.0, 1.0, -8.6, -11.65)">
      <path d="M12.45 29.85 L14.0 29.65 Q14.7 32.15 15.95 32.85 16.45 32.85 16.45 33.6 16.2 35.1 14.95 35.6 L12.95 35.35 Q10.2 33.6 9.7 29.65 L11.25 29.85 Q11.7 32.6 13.75 34.1 L14.45 34.4 Q14.45 34.1 14.7 33.85 L12.45 29.85" fill="#260000" fill-rule="evenodd" stroke="none"/>
      <path d="M12.45 14.65 L12.7 12.4 Q12.7 12.15 13.2 11.65 L14.2 11.9 Q16.2 14.65 15.45 16.9 12.95 25.1 14.0 29.65 L12.45 29.85 12.2 26.65 Q12.2 22.35 14.2 16.65 L14.2 15.9 14.0 14.65 14.0 15.15 Q10.45 26.15 11.25 29.85 L9.7 29.65 Q9.2 24.85 12.45 14.65" fill="#650000" fill-rule="evenodd" stroke="none"/>
      <path d="M10.45 22.9 Q14.45 21.65 14.45 25.4 14.45 27.15 10.75 27.15 9.95 27.15 8.95 25.4 8.5 24.6 10.45 22.9" fill="#5d0000" fill-rule="evenodd" stroke="none"/>
      <path d="M13.2 29.65 L10.45 29.65 Q9.95 24.4 13.2 14.9 L13.45 12.4 Q15.45 14.65 14.95 16.65 12.2 24.6 13.2 29.65" fill="#ff0000" fill-rule="evenodd" stroke="none"/>
      <path d="M13.2 29.65 Q14.0 32.6 15.7 33.35 15.2 35.85 13.2 34.9 11.0 33.1 10.45 29.65 L13.2 29.65" fill="#b80000" fill-rule="evenodd" stroke="none"/>
      <path d="M13.45 18.65 Q11.45 23.9 12.7 29.65 L11.7 29.65 Q10.75 23.65 12.45 18.15 L14.0 14.4 Q14.7 14.65 14.7 15.4 L13.45 18.65" fill="#ff7f00" fill-rule="evenodd" stroke="none"/>
      <path d="M13.2 31.9 L15.2 33.85 14.45 34.4 Q13.45 34.9 12.45 32.15 L11.7 29.65 12.7 29.65 13.2 31.9" fill="#d25100" fill-rule="evenodd" stroke="none"/>
      <path d="M14.0 23.9 Q13.45 23.4 11.45 23.4 9.45 23.15 9.95 26.15 L13.2 26.65 Q14.45 26.65 14.0 23.9 M11.25 21.9 Q14.95 22.1 15.2 22.9 15.45 27.6 13.45 27.6 L8.75 27.15 Q8.5 25.4 8.75 24.15 9.45 21.65 11.25 21.9" fill="#5d0000" fill-rule="evenodd" stroke="none"/>
      <path d="M14.0 25.65 Q14.2 25.4 14.95 25.4 14.95 26.15 14.2 27.35 13.2 28.1 11.25 27.6 11.25 26.9 12.2 26.65 L13.45 26.65 Q13.45 26.4 14.0 25.65" fill="#260000" fill-rule="evenodd" stroke="none"/>
      <path d="M9.2 23.15 Q9.95 21.15 12.7 22.1 L11.95 23.15 Q11.0 22.65 10.45 23.4 9.95 24.15 9.2 23.15" fill="#920000" fill-rule="evenodd" stroke="none"/>
    </g>
  </defs>
</svg>
